!!!SOCIAL_FUNCTION:	songs of the horse society (dream societies)
!!!PDT:	1918

Specific Region: Dakotas, Minnesota, Montana, Nebraska
!!!REG: Dakotas and Montana
!!!LING_GROUP: Siouan
!!!LANG: Tone
!!!OTL@ENG: When a Horse Neighs
!!!ONM: No. 109
**kern
*Imale
*clefF4
*M3/4
*>[A,B,B]
*>norep[A,B]
*>A
*MM76
8.e
16e
4e
8d
8d
=2
8d
8d
8c
8A
8A
8A
=3
2.A
=4||
*M2/4
4A
*>B
=!|:
16A
16A
8A
=5
8c
8c
16c
8.c
=6
4c
8.A
16e
=7
8.d
16d
8.d
16d
=8
16e
8.d
8c
8c
=9
8c
24d
24c
24c
8A
8A
=10||
*M3/4
2.A
=11||
*M2/4
16E
8.E
8E
[8E
=12
4E]
8D
8D
=13
20D
20D
20E
20D
20D
8C
8C
=14
4C)
8.AA
16E
=15
8.D
16D
4E
=16
16D
[8.D
4D]
=17
20C
20C
20D
20C
20C
8.AA
16AA
=18
2AA
=19
4AA
==:|!
*-
!!!CNT: Native American -- Sioux
!!!MRD: 1911/07//-1914///
!!!OCL: Frances Densmore
!!!YOR1: Teton Sioux Music, Bulletin 61,
!!!YOR2: Bureau of American Ethnology, Smithsonian Institution
!!!PPR: Government Printing Office
!!!PPP: Washington, D.C.
!!!PDT: 1918///
!!!ENC: Craig Stuart Sapp
!!!END: 2002/03/25/
!!!EEV: 2002/03/31/
!!!AGN: Society Song/Song of the Horse Society
!!!MPN@@SIO: Tatang'ka-ohi'tika
!!!MPN@ENG: Brave Buffalo
!!!TXO: Teton Sioux
!!!MLC: Standing Rock Reservation, South Dakota, United States of America
!!!ARL: 45.9/-100.7#
!!!catalog: Catalogue No. 604
!!!PPG: 300
!!!EFL: 109/245
!!!VTS: 2185701157
